!!!Genre:	Freylekhs
!!!Mode:	Minor
!!!Edition:	2015
!!!Listening/dance:	dance
!!!Free rhythm?:	No
!!!Secondary Modes:	All minor
!!!One_Mode:	yes
**kern
*I"P1
*clefG2
*k[b-e-]
*g:
*M2/4
*>A
=1
8g
4g
8a
=2
8b-
4b-
8cc
=3
8dd
4dd
8ee-
=4
8ddL
8cc
8b-
8aJ
=5
8gL
8ee-
8dd
8ccJ
=6
4dd
4b-
=7
8ccL
16ddL
16ccJJ
8b-L
8ccJ
=8
4dd
4gg
=9:|!
8ccL
16ddL
16ccJJ
8b-L
8aJ
=10
4g
8g
8r
==
*-
